X: 1209
T: Sodger Laddie
P: Sodger Laddie
C:Walsh's Complete Country Dances, 1731
R:Jig (8x32)
B:RSCDS 12-9
Z:Anselm Lingnau <anselm@strathspey.org>
M:6/8
K:F
|:f|"F"A>GF FCD|"Bb"G>AG "F"GAc|"Bb"d/e/fF "F"FCD|"(C)"F>GF "F"A2F|
    "Bb"B>cB "F"A>BA|"Gm"G>AG "F"GAc|"Gm"d/e/fF "F"FCD|"C7"F>GF "F"Ac:|
|:d/e/|"Dm"f>gf "F"fcA|"Bb"Ggg "Gm"g2g|"C7"c>de "F"fcA|f>ge "F"fcA|
    "Bb"B>cd/e/ "F"fcA|"Gm"G>AG "F"GAc|"Bb"d/e/fF "F"FCD|"C7"F>GF "F"Ac:|
%%center Book12/1209-Sodger_Laddie-AL.abc

%%sep 1 1 500
%%sep 1 1 500

